assets/images/script/j-6-e2.svg

<svg fill="none" height="66" viewBox="0 0 328 66" width="328" xmlns="http://www.w3.org/2000/svg"><path d="m3.98054 55.1354c-3.152731 0 9.22536 5.3971 10.16136 5.6494 21.6437 5.8344 45.3489-.3835 63.5466-12.588 8.1037-5.4347 15.7384-12.227 17.6687-22.2564 1.2472-6.4799-.2409-14.0363-5.6494-18.27538-6.8885-5.39907-19.7721-6.20228-26.3514.22749-7.9464 7.76579-15.0697 20.15749-11.2988 31.46999 5.3355 16.0065 25.2325 19.1375 39.7735 20.0953 11.9999.7904 24.0539.0877 35.8299-2.4266 9.044-1.931 19.136-4.8962 25.442-12.133 8.635-9.9106 9.838-25.4113 2.843-36.3232-.962-1.50215-2.865-2.63784-1.289-1.06164 2.057 2.05641 3.831 6.63834 4.503 9.32724 2.843 11.374 3.13 22.9767 11.119 32.0008 9.146 10.3323 21.406 6.924 35.221 8.9434 23.5 0 40 1.9769 61.5 1.9769 11.5 0 23.35-.8481 33.86-3.5314 6.431-1.642 14.032-3.4846 19.034-8.1898 8.439-7.9383 4.605-21.159-2.124-28.7733-2.559-2.8965-6-5.2688-9.479-6.9386-1.595-.7658-.26.7264.076 1.1754" stroke="#000" stroke-linecap="round" stroke-width="5"/></svg>

<svg width="328" height="66" viewBox="0 0 328 66" fill="none" xmlns="http://www.w3.org/2000/svg">
<path d="M3.98054 55.1354C0.827809 55.1354 13.2059 60.5325 14.1419 60.7848C35.7856 66.6192 59.4908 60.4013 77.6885 48.1968C85.7922 42.7621 93.4269 35.9698 95.3572 25.9404C96.6044 19.4605 95.1163 11.9041 89.7078 7.66502C82.8193 2.26595 69.9357 1.46274 63.3564 7.89251C55.41 15.6583 48.2867 28.05 52.0576 39.3625C57.3931 55.369 77.2901 58.5 91.8311 59.4578C103.831 60.2482 115.885 59.5455 127.661 57.0312C136.705 55.1002 146.797 52.135 153.103 44.8982C161.738 34.9876 162.941 19.4869 155.946 8.575C154.984 7.07285 153.081 5.93716 154.657 7.51336C156.714 9.56977 158.488 14.1517 159.16 16.8406C162.003 28.2146 162.29 39.8173 170.279 48.8414C179.425 59.1737 191.685 55.7654 205.5 57.7848C229 57.7848 245.5 59.7617 267 59.7617C278.5 59.7617 290.35 58.9136 300.86 56.2303C307.291 54.5883 314.892 52.7457 319.894 48.0405C328.333 40.1022 324.499 26.8815 317.77 19.2672C315.211 16.3707 311.77 13.9984 308.291 12.3286C306.696 11.5628 308.031 13.055 308.367 13.504" stroke="black" stroke-width="5" stroke-linecap="round"/>
</svg>
